Newaita-dark/actions/22/distribute-vertical-page.svg

<svg height="22" viewBox="0 0 22 22" width="22" xmlns="http://www.w3.org/2000/svg"><g fill="#e0e0e0"><path d="m3.636719 1.992188c-1.007813 0-1.816407.808593-1.816407 1.816406v10.917968l1.816407 1.816407v-11.824219c0-.503906.40625-.910156.910156-.910156h12.734375c.503906 0 .910156.40625.910156.910156v12.734375c0 .503906-.40625.910156-.910156.910156h-11.824219l1.820313 1.820313h10.914062c1.007813 0 1.820313-.8125 1.820313-1.820313v-14.554687c0-1.007813-.8125-1.816406-1.820313-1.816406zm0 0"/><path d="m15.917969 10.175781c-.25 0-.453125-.203125-.453125-.453125v-3.636718c0-.253907.203125-.457032.453125-.457032s.453125.203125.453125.457032v3.636718c0 .25-.203125.453125-.453125.453125zm0 0"/><path d="m5.9375 10.175781h-.050781c-.238281 0-.429688-.203125-.429688-.453125v-3.636718c0-.253907.191407-.457032.429688-.457032h.050781c.238281 0 .429688.203125.429688.457032v3.636718c0 .25-.191407.453125-.429688.453125zm0 0"/><path d="m5.457031 9.742188v-.003907c0-.238281.203125-.433593.457031-.433593h10.003907c.25 0 .453125.195312.453125.433593v.003907c0 .242187-.203125.433593-.453125.433593h-10.003907c-.253906 0-.457031-.191406-.457031-.433593zm0 0"/><path d="m5.457031 6.101562v-.035156c0-.242187.195313-.4375.4375-.4375h10.042969c.238281 0 .433594.195313.433594.4375v.035156c0 .242188-.195313.4375-.433594.4375h-10.042969c-.242187 0-.4375-.195312-.4375-.4375zm0 0"/><path d="m15.917969 16.542969c-.25 0-.453125-.203125-.453125-.453125v-3.636719c0-.253906.203125-.457031.453125-.457031s.453125.203125.453125.457031v3.636719c0 .25-.203125.453125-.453125.453125zm0 0"/><path d="m9.097656 15.671875v.871094h6.820313c.25 0 .453125-.191407.453125-.433594v-.003906c0-.238281-.203125-.433594-.453125-.433594zm0 0"/><path d="m5.894531 11.996094c-.242187 0-.4375.195312-.4375.4375v.035156c0 .191406.117188.347656.285157.410156h1.988281v.027344h8.207031c.242188 0 .433594-.195312.433594-.4375v-.035156c0-.242188-.191406-.4375-.433594-.4375zm0 0"/><path d="m3.636719 14.726562c-.503907 0-.957031.203126-1.285157.53125l4.394532 4.394532c.328125-.328125.53125-.785156.53125-1.289063v-1.820312c0-1.007813-.8125-1.816407-1.820313-1.816407zm0 0"/></g></svg>

<?xml version="1.0" encoding="UTF-8"?>
<svg xmlns="http://www.w3.org/2000/svg" xmlns:xlink="http://www.w3.org/1999/xlink" width="22px" height="22px" viewBox="0 0 22 22" version="1.1">
<g id="surface1">
<path style=" stroke:none;fill-rule:nonzero;fill:rgb(87.843138%,87.843138%,87.843138%);fill-opacity:1;" d="M 3.636719 1.992188 C 2.628906 1.992188 1.820312 2.800781 1.820312 3.808594 L 1.820312 14.726562 L 3.636719 16.542969 L 3.636719 4.71875 C 3.636719 4.214844 4.042969 3.808594 4.546875 3.808594 L 17.28125 3.808594 C 17.785156 3.808594 18.191406 4.214844 18.191406 4.71875 L 18.191406 17.453125 C 18.191406 17.957031 17.785156 18.363281 17.28125 18.363281 L 5.457031 18.363281 L 7.277344 20.183594 L 18.191406 20.183594 C 19.199219 20.183594 20.011719 19.371094 20.011719 18.363281 L 20.011719 3.808594 C 20.011719 2.800781 19.199219 1.992188 18.191406 1.992188 Z M 3.636719 1.992188 "/>
<path style=" stroke:none;fill-rule:nonzero;fill:rgb(87.843138%,87.843138%,87.843138%);fill-opacity:1;" d="M 15.917969 10.175781 C 15.667969 10.175781 15.464844 9.972656 15.464844 9.722656 L 15.464844 6.085938 C 15.464844 5.832031 15.667969 5.628906 15.917969 5.628906 C 16.167969 5.628906 16.371094 5.832031 16.371094 6.085938 L 16.371094 9.722656 C 16.371094 9.972656 16.167969 10.175781 15.917969 10.175781 Z M 15.917969 10.175781 "/>
<path style=" stroke:none;fill-rule:nonzero;fill:rgb(87.843138%,87.843138%,87.843138%);fill-opacity:1;" d="M 5.9375 10.175781 L 5.886719 10.175781 C 5.648438 10.175781 5.457031 9.972656 5.457031 9.722656 L 5.457031 6.085938 C 5.457031 5.832031 5.648438 5.628906 5.886719 5.628906 L 5.9375 5.628906 C 6.175781 5.628906 6.367188 5.832031 6.367188 6.085938 L 6.367188 9.722656 C 6.367188 9.972656 6.175781 10.175781 5.9375 10.175781 Z M 5.9375 10.175781 "/>
<path style=" stroke:none;fill-rule:nonzero;fill:rgb(87.843138%,87.843138%,87.843138%);fill-opacity:1;" d="M 5.457031 9.742188 L 5.457031 9.738281 C 5.457031 9.5 5.660156 9.304688 5.914062 9.304688 L 15.917969 9.304688 C 16.167969 9.304688 16.371094 9.5 16.371094 9.738281 L 16.371094 9.742188 C 16.371094 9.984375 16.167969 10.175781 15.917969 10.175781 L 5.914062 10.175781 C 5.660156 10.175781 5.457031 9.984375 5.457031 9.742188 Z M 5.457031 9.742188 "/>
<path style=" stroke:none;fill-rule:nonzero;fill:rgb(87.843138%,87.843138%,87.843138%);fill-opacity:1;" d="M 5.457031 6.101562 L 5.457031 6.066406 C 5.457031 5.824219 5.652344 5.628906 5.894531 5.628906 L 15.9375 5.628906 C 16.175781 5.628906 16.371094 5.824219 16.371094 6.066406 L 16.371094 6.101562 C 16.371094 6.34375 16.175781 6.539062 15.9375 6.539062 L 5.894531 6.539062 C 5.652344 6.539062 5.457031 6.34375 5.457031 6.101562 Z M 5.457031 6.101562 "/>
<path style=" stroke:none;fill-rule:nonzero;fill:rgb(87.843138%,87.843138%,87.843138%);fill-opacity:1;" d="M 15.917969 16.542969 C 15.667969 16.542969 15.464844 16.339844 15.464844 16.089844 L 15.464844 12.453125 C 15.464844 12.199219 15.667969 11.996094 15.917969 11.996094 C 16.167969 11.996094 16.371094 12.199219 16.371094 12.453125 L 16.371094 16.089844 C 16.371094 16.339844 16.167969 16.542969 15.917969 16.542969 Z M 15.917969 16.542969 "/>
<path style=" stroke:none;fill-rule:nonzero;fill:rgb(87.843138%,87.843138%,87.843138%);fill-opacity:1;" d="M 9.097656 15.671875 L 9.097656 16.542969 L 15.917969 16.542969 C 16.167969 16.542969 16.371094 16.351562 16.371094 16.109375 L 16.371094 16.105469 C 16.371094 15.867188 16.167969 15.671875 15.917969 15.671875 Z M 9.097656 15.671875 "/>
<path style=" stroke:none;fill-rule:nonzero;fill:rgb(87.843138%,87.843138%,87.843138%);fill-opacity:1;" d="M 5.894531 11.996094 C 5.652344 11.996094 5.457031 12.191406 5.457031 12.433594 L 5.457031 12.46875 C 5.457031 12.660156 5.574219 12.816406 5.742188 12.878906 L 7.730469 12.878906 L 7.730469 12.90625 L 15.9375 12.90625 C 16.179688 12.90625 16.371094 12.710938 16.371094 12.46875 L 16.371094 12.433594 C 16.371094 12.191406 16.179688 11.996094 15.9375 11.996094 Z M 5.894531 11.996094 "/>
<path style=" stroke:none;fill-rule:nonzero;fill:rgb(87.843138%,87.843138%,87.843138%);fill-opacity:1;" d="M 3.636719 14.726562 C 3.132812 14.726562 2.679688 14.929688 2.351562 15.257812 L 6.746094 19.652344 C 7.074219 19.324219 7.277344 18.867188 7.277344 18.363281 L 7.277344 16.542969 C 7.277344 15.535156 6.464844 14.726562 5.457031 14.726562 Z M 3.636719 14.726562 "/>
</g>
</svg>
